images/icons/PBS-settings.svg

<?xml version="1.0" encoding="UTF-8" standalone="no"?>
<svg width="256px" height="256px" viewBox="0 0 256 256" version="1.1" xmlns="http://www.w3.org/2000/svg" xmlns:xlink="http://www.w3.org/1999/xlink">
    <!-- Generator: Sketch 39.1 (31720) - http://www.bohemiancoding.com/sketch -->
    <title>PBS-settings</title>
    <desc>Created with Sketch.</desc>
    <defs>
        <polygon id="path-1" points="170 85 170 170 0 170 0 85 0 0 170 0"></polygon>
    </defs>
    <g id="Page-1" stroke="none" stroke-width="1" fill="none" fill-rule="evenodd">
        <g id="PBS-settings">
            <g id="Page-1" transform="translate(43.000000, 43.000000)">
                <mask id="mask-2" fill="white">
                    <use xlink:href="#path-1"></use>
                </mask>
                <g id="Clip-2"></g>
                <path d="M85,122.693237 C64.1159094,122.693237 47.3067633,105.884091 47.3067633,85 C47.3067633,64.1159094 64.1159094,47.3067633 85,47.3067633 C105.884091,47.3067633 122.693237,64.1159094 122.693237,85 C122.693237,105.884091 105.884091,122.693237 85,122.693237 M170,60.3623188 C168.357488,54.6135266 165.89372,48.8647343 163.019324,43.52657 C151.932367,46.4009662 143.309179,41.884058 135.507246,34.4927536 C128.115942,27.1014493 125.652174,18.0676329 128.52657,6.98067633 C123.188406,4.10628019 117.439614,1.64251208 111.690821,0 C105.942029,9.85507246 95.6763285,16.4251208 85,16.4251208 C74.3236715,16.4251208 64.057971,9.85507246 58.3091787,0 C52.5603865,1.64251208 46.8115942,4.10628019 41.47343,6.98067633 C44.3478261,18.0676329 41.884058,26.6908213 34.4927536,34.4927536 C27.1014493,41.884058 18.0676329,46.4009662 6.98067633,43.52657 C4.10628019,48.8647343 1.64251208,54.6135266 0,60.3623188 C9.85507246,66.1111111 16.4251208,74.3236715 16.4251208,85 C16.4251208,95.6763285 9.85507246,105.942029 0,111.690821 C1.64251208,117.439614 4.10628019,123.188406 6.98067633,128.52657 C18.0676329,125.652174 27.1014493,128.115942 34.4927536,135.507246 C41.884058,142.898551 44.3478261,151.932367 41.47343,163.019324 C46.8115942,165.89372 52.5603865,168.357488 58.3091787,170 C64.057971,160.144928 74.3236715,153.574879 85,153.574879 C95.6763285,153.574879 105.942029,160.144928 111.690821,170 C117.439614,168.357488 123.188406,165.89372 128.52657,163.019324 C125.652174,151.932367 128.115942,143.309179 135.507246,135.507246 C142.898551,128.115942 151.932367,123.599034 163.019324,126.47343 C165.89372,121.135266 168.357488,115.386473 170,109.637681 C160.144928,103.888889 153.574879,95.6763285 153.574879,85 C153.574879,74.3236715 160.144928,66.1111111 170,60.3623188 Z" id="Fill-1" fill="#1A1A1A" mask="url(#mask-2)"></path>
            </g>
        </g>
    </g>
</svg>

<svg width="256" height="256" viewBox="0 0 256 256" xmlns="http://www.w3.org/2000/svg" xmlns:xlink="http://www.w3.org/1999/xlink"><title>PBS-settings</title><defs><path id="a" d="M170 85v85H0V0h170z"/></defs><g transform="translate(43 43)" fill="none" fill-rule="evenodd"><mask id="b" fill="#fff"><use xlink:href="#a"/></mask><path d="M85 122.693c-20.884 0-37.693-16.809-37.693-37.693 0-20.884 16.809-37.693 37.693-37.693 20.884 0 37.693 16.809 37.693 37.693 0 20.884-16.809 37.693-37.693 37.693m85-62.33c-1.643-5.75-4.106-11.498-6.98-16.836-11.088 2.874-19.71-1.643-27.513-9.034-7.391-7.392-9.855-16.425-6.98-27.512C123.188 4.106 117.44 1.643 111.69 0 105.942 9.855 95.676 16.425 85 16.425c-10.676 0-20.942-6.57-26.69-16.425-5.75 1.643-11.498 4.106-16.837 6.98 2.875 11.088.411 19.71-6.98 27.513C27.1 41.884 18.068 46.4 6.98 43.527 4.106 48.865 1.643 54.614 0 60.362 9.855 66.112 16.425 74.324 16.425 85c0 10.676-6.57 20.942-16.425 26.69 1.643 5.75 4.106 11.498 6.98 16.837 11.088-2.875 20.121-.411 27.513 6.98 7.391 7.392 9.855 16.425 6.98 27.512 5.339 2.875 11.087 5.338 16.836 6.981 5.749-9.855 16.015-16.425 26.691-16.425 10.676 0 20.942 6.57 26.69 16.425 5.75-1.643 11.498-4.106 16.837-6.98-2.875-11.088-.411-19.71 6.98-27.513 7.392-7.391 16.425-11.908 27.512-9.034 2.875-5.338 5.338-11.087 6.981-16.835-9.855-5.75-16.425-13.962-16.425-24.638 0-10.676 6.57-18.889 16.425-24.638z" fill="#1A1A1A" mask="url(#b)"/></g></svg>
